usr/share/icons/biglinux-icons-material-dark/symbolic/actions/edit-paste-in-place.svg

<svg xmlns="http://www.w3.org/2000/svg" viewBox="0 0 16 16">
  <defs id="defs3051">
    <style type="text/css" id="current-color-scheme">
      .ColorScheme-Text {
        color:#dedede;
      }
      </style>
  </defs>
 <path style="fill:currentColor;fill-opacity:1;stroke:none" 
       d="M 8 2 C 5.7908644 2.0000082 4.0000082 3.7908644 4 6 C 4.00157 6.4763707 4.088214 6.9486316 4.2558594 7.3945312 C 4.3771944 7.7298716 4.6218828 8.1011731 4.7753906 8.3574219 L 8 14 L 11.224609 8.359375 C 11.477819 8.0439653 11.587549 7.710154 11.746094 7.3945312 C 11.913073 6.9485095 11.999058 6.4762525 12 6 C 11.999992 3.7908644 10.209136 2.0000082 8 2 z M 8 3 C 8.9153025 3.0000155 9.7805248 3.4178824 10.349609 4.1347656 C 10.474228 4.2914935 10.582842 4.4603041 10.673828 4.6386719 C 10.855681 4.9963422 10.963936 5.3868588 10.992188 5.7871094 C 10.997288 5.8579584 10.9999 5.9289664 11 6 C 10.999765 6.3006561 10.95434 6.5995687 10.865234 6.8867188 C 10.815834 7.0425638 10.753779 7.1941101 10.679688 7.3398438 C 10.671387 7.3581578 10.662947 7.3763883 10.654297 7.3945312 C 10.136351 8.3810905 9.114261 8.9993012 8 9 C 6.885739 8.9993011 5.8636602 8.3810901 5.3457031 7.3945312 C 5.3012231 7.3099213 5.2608124 7.2232339 5.2246094 7.1347656 L 5.21875 7.1210938 C 5.1857307 7.0384545 5.1564048 6.954387 5.1308594 6.8691406 C 5.1268808 6.8574461 5.1229745 6.8457271 5.1191406 6.8339844 C 5.0969206 6.7540729 5.0780241 6.6732743 5.0625 6.5917969 C 5.0584468 6.574904 5.0545404 6.5579763 5.0507812 6.5410156 C 5.0354504 6.4569197 5.023721 6.372207 5.015625 6.2871094 C 5.01422 6.272796 5.0129179 6.2584727 5.0117188 6.2441406 C 5.0044975 6.1629534 5.0005881 6.0815056 5 6 C 5.0002342 5.9001927 5.005449 5.8004593 5.015625 5.7011719 C 5.0962339 4.8944376 5.4999321 4.1546766 6.1347656 3.6503906 C 6.2914936 3.525772 6.4603041 3.4171575 6.6386719 3.3261719 C 7.0603775 3.1116175 7.5268518 2.9998511 8 3 z "
     class="ColorScheme-Text"
     />
</svg>

<svg xmlns="http://www.w3.org/2000/svg" viewBox="0 0 16 16">
<defs id="defs3051">
<style id="current-color-scheme" type="text/css">
.ColorScheme-Contrast{color:#dedede}
</style>
</defs>
<path d="M8 2a4 4 0 0 0-4 4 4 4 0 0 0 .256 1.395c.121.335.366.706.52.962L8 14l3.225-5.64c.253-.316.363-.65.521-.965A4 4 0 0 0 12 6a4 4 0 0 0-4-4m0 1a3 3 0 0 1 2.865 3.887 3 3 0 0 1-.185.453l-.026.055A3 3 0 0 1 8 9a3 3 0 0 1-2.775-1.865l-.006-.014a3 3 0 0 1-.207-.877 3 3 0 0 1 .004-.543A3 3 0 0 1 8 3" class="ColorScheme-Contrast" style="fill:currentColor;fill-opacity:1;stroke:none"/>
</svg>
